X:1
T:Title
T:Horelpiep
T:Transcribed by Bailey
T:by Jan Rap 
C:Composer
%%score { ( 1 3 ) | 2 }
L:1/8
Q:1/4=200
M:4/4
K:F
V:1 treble nm="Piano" snm="Pno."
V:3 treble 
V:2 bass 
V:1
!mf! [db][ca][Bg][Af] [Ge][Af][Bg][Ge] | .[FAcf] z .[FAcf] z .[FAcf] z (3cde | %2
{/e} !>!.f z .[FA] z .[FA] z ef | .[Bdg] z .[GB] z .[GB] z ga | bagf efgf | .e z .c z .c z (3cde | %6
{/e} .[fa] z .[FAa] z .[FAa] z ef | .[Bdgb] z .[GBb] z .[GBb] z ga | %8
 !tenuto![gb]!tenuto![fa]!tenuto![eg]!tenuto![df] !tenuto![ce]!tenuto![df]!tenuto![eg]!tenuto![ce] | %9
 !tenuto!.[Af] z !tenuto!.[Ac] z !tenuto!.[Ac] z [ce][Bd] |S!ped! AcAc fcAc!ped-up! | %11
!ped! BdBd fdBd!ped-up! |!ped! AcAc fcAc!ped-up! | [GB] z [EG] z [EG] z GF | %14
!ped! AcAc fcAc!ped-up! |!ped! BdBd fdBd!ped-up! |!ped! gfed cdec!ped-up! | %17
 !tenuto!.A z !tenuto!.[CFA] z !tenuto!.[CFA] z (3cde!dacoda! |{/e} !>!.f z .[FA] z .[FA] z g_g | %19
 .[Bdg] z .[GB] z .[GB] z ga | bagf efgf | .e z .c z .c z (3cde |{/e} .f z .[FA] z .[FA] z g_g | %23
 .[Bdg] z .[GB] z .[GB] z ga | %24
 !tenuto![gb]!tenuto![fa]!tenuto![eg]!tenuto![df] !tenuto![ce]!tenuto![df]!tenuto![eg]!tenuto![ce] | %25
 !tenuto!.[Af] z !tenuto!.[Ac] z !tenuto!.[Ac] z [ce][Bd]!D.S.! |O{/e} !>!.f z .[FA] z .[FA] z ef | %27
 .[Bdg] z .[GB] z .[GB] z ga | bagf efgf | .e z .c z .c z (3cde | %30
{/e} .[fa] z .[FAa] z .[FAa] z ef | .[Bdgb] z .[GBb] z .[GBb] z ga | %32
 !tenuto![gb]!tenuto![fa]!tenuto![eg]!tenuto![df] !tenuto![ce]!tenuto![df]!tenuto![eg]!tenuto![ce] | %33
 !tenuto!.[Af] z !tenuto!.[Ac] z !tenuto!.[Ac] z z2 |] %34
V:2
 [B,,,B,,]2 [F,B,D]2 [C,,C,]2 [G,CE]2 | .[F,,C,F,] z .[F,,C,F,] z .[F,,C,F,] z z2 | %2
 F,,2 .[C,F,A,] z .[C,F,A,] z z2 | G,,2 .[D,G,B,] z .[D,G,B,] z z2 | %4
 B,,2 [D,F,B,D] z G,,2 [D,G,=B,D] z | C,2 .[E,G,CE] z .[E,G,CE] z z2 | %6
 F,,2 .[C,F,A,] z .[C,F,A,] z z2 | G,,2 .[D,G,B,] z .[D,G,B,] z z2 | %8
 B,,2 [D,F,B,D] z C,2 [E,G,CE] z | F,,2 !tenuto!.[C,F,A,] z !tenuto!.[C,F,A,] z z2 | %10
 F,,2 [C,F,A,] z C,2 [C,F,A,] z | B,,2 [F,B,D] z F,,2 [F,B,D] z | F,,2 [C,F,A,] z C,2 [C,F,A,] z | %13
 C,, z [C,E,G,] z [C,E,G,] z z2 | F,,2 [C,F,A,] z C,2 [C,F,A,] z | B,,2 [F,B,D] z F,,2 [F,B,D] z | %16
 C,2 [E,G,C] z G,,2 [E,G,C] z | !tenuto!.[F,,C,F,] z !tenuto!.[F,,C,F,] z !tenuto!.[F,,C,F,] z z2 | %18
 F,,2 .[C,F,A,] z .[C,F,A,] z z2 | G,,2 .[D,G,B,] z .[D,G,B,] z z2 | %20
 B,,2 [D,F,B,D] z G,,2 [D,G,=B,D] z | C,2 .[E,G,CE] z .[E,G,CE] z z2 | %22
 F,,2 .[C,F,A,] z .[C,F,A,] z z2 | G,,2 .[D,G,B,] z .[D,G,B,] z z2 | %24
 B,,2 [D,F,B,D] z C,2 [E,G,CE] z | F,,2 !tenuto!.[C,F,A,] z !tenuto!.[C,F,A,] z z2 | %26
 F,,2 .[C,F,A,] z .[C,F,A,] z z2 | G,,2 .[D,G,B,] z .[D,G,B,] z z2 | %28
 B,,2 [D,F,B,D] z G,,2 [D,G,=B,D] z | C,2 .[E,G,CE] z .[E,G,CE] z z2 | %30
 F,,2 .[C,F,A,] z .[C,F,A,] z z2 | G,,2 .[D,G,B,] z .[D,G,B,] z z2 | %32
 B,,2 [D,F,B,D] z C,2 [E,G,CE] z | F,,2 !tenuto!.[C,F,A,] z !tenuto!.[C,F,A,] z z2 |] %34
V:3
 x8 | x8 | x8 | x8 | x8 | x8 | x8 | x8 | x8 | x8 | A4 a4 | B4 b4 | A4 a4 | x8 | A4 a4 | B4 b4 | %16
 x8 | x8 | x8 | x8 | x8 | x8 | x8 | x8 | x8 | x8 | x8 | x8 | x8 | x8 | x8 | x8 | x8 | x8 |] %34

